resources/icons/color/notebook.svg

<svg width="64" height="64" viewBox="0 0 64 64" fill="none" xmlns="http://www.w3.org/2000/svg">
<path fill-rule="evenodd" clip-rule="evenodd" d="M13.875 2.5H48.5C50.8429 2.5 53.3934 5.25867 53.3934 7.67194V43.4012C53.3934 44.8807 54.648 43.8445 53.3934 44.75L53.7411 46.421V55.125L53.3934 57.6875L50.375 61.1875H15.375L11.0625 59.1875L9.3125 54.625L9.31253 53.1875V52.375C9.31253 52.375 10.4548 50.6599 9.66016 51.4951V11.6536C9.66016 8.03373 10.3606 2.5 13.875 2.5Z" fill="url(#paint0_linear_41743_63256)"/>
<path fill-rule="evenodd" clip-rule="evenodd" d="M13.875 2.5H48.5C50.8429 2.5 53.3934 5.25867 53.3934 7.67194V43.4012C53.3934 44.8807 54.648 43.8445 53.3934 44.75L53.7411 46.421V55.125L53.3934 57.6875L50.375 61.1875H15.375L11.0625 59.1875L9.3125 54.625L9.31253 53.1875V52.375C9.31253 52.375 10.4548 50.6599 9.66016 51.4951V11.6536C9.66016 8.03373 10.3606 2.5 13.875 2.5Z" fill="url(#paint1_radial_41743_63256)" fill-opacity="0.2"/>
<path fill-rule="evenodd" clip-rule="evenodd" d="M9.0063 54.3203C9.17442 58.5901 12.689 62 17 62H48C51.3137 62 54 59.3137 54 56V8C54 4.68629 51.3137 2 48 2H15C11.6863 2 9 4.68629 9 8V54C9 54.0547 9.00055 54.1093 9.00164 54.1637C9.00055 54.2158 9 54.268 9 54.3203H9.0063ZM15 3H48C50.7614 3 53 5.23858 53 8V43.5C53 45.433 51.433 47 49.5 47H16.3203C13.6254 47 11.2707 48.4562 10 50.6246V8C10 5.23858 12.2386 3 15 3ZM10.0019 54.1642C10.0847 50.7457 12.8819 48 16.3203 48H49.5C50.9136 48 52.175 47.3482 53 46.3287V50.5C53 52.433 51.433 54 49.5 54H15.5C15.2239 54 15 54.2239 15 54.5C15 54.7761 15.2239 55 15.5 55H49.5C50.9136 55 52.175 54.3482 53 53.3287V56C53 58.7614 50.7614 61 48 61H17C13.1889 61 10.0892 57.9544 10.0019 54.1642Z" fill="url(#paint2_linear_41743_63256)"/>
<path d="M34.9257 14.0208C35.1904 14.0994 35.3413 14.3778 35.2626 14.6425L28.7294 36.6425C28.6508 36.9072 28.3725 37.0581 28.1078 36.9794C27.8431 36.9008 27.6922 36.6225 27.7708 36.3578L34.304 14.3578C34.3826 14.0931 34.661 13.9422 34.9257 14.0208Z" fill="url(#paint3_linear_41743_63256)"/>
<path d="M24.8536 18.1464C24.6583 17.9512 24.3417 17.9512 24.1464 18.1464L17.2172 25.0757C16.9828 25.31 16.9828 25.6899 17.2172 25.9243L24.1464 32.8536C24.3417 33.0488 24.6583 33.0488 24.8536 32.8536C25.0488 32.6583 25.0488 32.3417 24.8536 32.1464L18.2071 25.5L24.8536 18.8536C25.0488 18.6583 25.0488 18.3417 24.8536 18.1464Z" fill="url(#paint4_linear_41743_63256)"/>
<path d="M38.8536 32.8536C38.6583 33.0488 38.3417 33.0488 38.1464 32.8536C37.9512 32.6583 37.9512 32.3417 38.1464 32.1464L44.7929 25.5L38.1464 18.8536C37.9512 18.6583 37.9512 18.3417 38.1464 18.1464C38.3417 17.9512 38.6583 17.9512 38.8536 18.1464L45.7828 25.0757C46.0172 25.3101 46.0172 25.69 45.7828 25.9243L38.8536 32.8536Z" fill="url(#paint5_linear_41743_63256)"/>
<defs>
<linearGradient id="paint0_linear_41743_63256" x1="21.7121" y1="2.5" x2="31.3641" y2="61.2315" gradientUnits="userSpaceOnUse">
<stop stop-color="white"/>
<stop offset="1" stop-color="#EBEBEB"/>
</linearGradient>
<radialGradient id="paint1_radial_41743_63256" cx="0" cy="0" r="1" gradientUnits="userSpaceOnUse" gradientTransform="translate(23.572 17.7832) rotate(63.1115) scale(52.0928 39.3979)">
<stop offset="0.177083" stop-color="white"/>
<stop offset="1" stop-color="#B8B8B8"/>
</radialGradient>
<linearGradient id="paint2_linear_41743_63256" x1="23.5313" y1="2" x2="34.1583" y2="61.7774" gradientUnits="userSpaceOnUse">
<stop stop-color="#BBBBBB"/>
<stop offset="1" stop-color="#888888"/>
</linearGradient>
<linearGradient id="paint3_linear_41743_63256" x1="17.0414" y1="14" x2="39.4519" y2="42.1756" gradientUnits="userSpaceOnUse">
<stop stop-color="#4BA446"/>
<stop offset="1" stop-color="#3F7D35"/>
</linearGradient>
<linearGradient id="paint4_linear_41743_63256" x1="17.0414" y1="14" x2="39.4519" y2="42.1756" gradientUnits="userSpaceOnUse">
<stop stop-color="#4BA446"/>
<stop offset="1" stop-color="#3F7D35"/>
</linearGradient>
<linearGradient id="paint5_linear_41743_63256" x1="17.0414" y1="14" x2="39.4519" y2="42.1756" gradientUnits="userSpaceOnUse">
<stop stop-color="#4BA446"/>
<stop offset="1" stop-color="#3F7D35"/>
</linearGradient>
</defs>
</svg>

<svg xmlns="http://www.w3.org/2000/svg" width="64" height="64" fill="currentColor"><path fill="url(#a)" fill-rule="evenodd" d="M13.875 2.5H48.5c2.343 0 4.893 2.759 4.893 5.172v35.73c0 1.479 1.255.442 0 1.348l.348 1.671v8.704l-.348 2.563-3.018 3.5h-35l-4.313-2-1.75-4.563v-2.25s1.143-1.715.348-.88V11.654c0-3.62.7-9.154 4.215-9.154Z" clip-rule="evenodd"/><path fill="url(#b)" fill-opacity=".2" fill-rule="evenodd" d="M13.875 2.5H48.5c2.343 0 4.893 2.759 4.893 5.172v35.73c0 1.479 1.255.442 0 1.348l.348 1.671v8.704l-.348 2.563-3.018 3.5h-35l-4.313-2-1.75-4.563v-2.25s1.143-1.715.348-.88V11.654c0-3.62.7-9.154 4.215-9.154Z" clip-rule="evenodd"/><path fill="url(#c)" fill-rule="evenodd" d="M9.006 54.32A8 8 0 0 0 17 62h31a6 6 0 0 0 6-6V8a6 6 0 0 0-6-6H15a6 6 0 0 0-6 6v46c0 .055 0 .11.002.164A7.487 7.487 0 0 0 9 54.32h.006ZM15 3h33a5 5 0 0 1 5 5v35.5a3.5 3.5 0 0 1-3.5 3.5H16.32A7.317 7.317 0 0 0 10 50.625V8a5 5 0 0 1 5-5Zm-4.998 51.164A6.32 6.32 0 0 1 16.32 48H49.5a4.491 4.491 0 0 0 3.5-1.671V50.5a3.5 3.5 0 0 1-3.5 3.5h-34a.5.5 0 0 0 0 1h34a4.491 4.491 0 0 0 3.5-1.671V56a5 5 0 0 1-5 5H17a7 7 0 0 1-6.998-6.836Z" clip-rule="evenodd"/><path fill="url(#d)" d="M34.926 14.02a.5.5 0 0 1 .337.623l-6.534 22a.5.5 0 1 1-.958-.285l6.533-22a.5.5 0 0 1 .622-.337Z"/><path fill="url(#e)" d="M24.854 18.146a.5.5 0 0 0-.708 0l-6.929 6.93a.6.6 0 0 0 0 .848l6.93 6.93a.5.5 0 0 0 .707-.708L18.207 25.5l6.647-6.646a.5.5 0 0 0 0-.708Z"/><path fill="url(#f)" d="M38.854 32.854a.5.5 0 0 1-.708-.708l6.647-6.646-6.647-6.646a.5.5 0 0 1 .708-.708l6.929 6.93a.6.6 0 0 1 0 .848l-6.93 6.93Z"/><defs><linearGradient id="a" x1="21.712" x2="31.364" y1="2.5" y2="61.231" gradientUnits="userSpaceOnUse"><stop stop-color="#fff"/><stop offset="1" stop-color="#EBEBEB"/></linearGradient><linearGradient id="c" x1="23.531" x2="34.158" y1="2" y2="61.777" gradientUnits="userSpaceOnUse"><stop stop-color="#BBB"/><stop offset="1" stop-color="#888"/></linearGradient><linearGradient id="d" x1="17.041" x2="39.452" y1="14" y2="42.176" gradientUnits="userSpaceOnUse"><stop stop-color="#4BA446"/><stop offset="1" stop-color="#3F7D35"/></linearGradient><linearGradient id="e" x1="17.041" x2="39.452" y1="14" y2="42.176" gradientUnits="userSpaceOnUse"><stop stop-color="#4BA446"/><stop offset="1" stop-color="#3F7D35"/></linearGradient><linearGradient id="f" x1="17.041" x2="39.452" y1="14" y2="42.176" gradientUnits="userSpaceOnUse"><stop stop-color="#4BA446"/><stop offset="1" stop-color="#3F7D35"/></linearGradient><radialGradient id="b" cx="0" cy="0" r="1" gradientTransform="rotate(63.112 -2.692 28.083) scale(52.0928 39.3979)" gradientUnits="userSpaceOnUse"><stop offset=".177" stop-color="#fff"/><stop offset="1" stop-color="#B8B8B8"/></radialGradient></defs></svg>
